X: 11845
T: Elusive Otter, The
R: reel
M: 4/4
K: Amajor
Accc ecBA|BcBA FEFA|Eccc ecBA|1 fecB ABcB:|2 fecB ABce||
Aaaf ecef|Aaaf edcB|Aaaf ecef|ABcd edcB|
Aaaf ecef|Aaaf edcB|Aaaf ecef|_gfed cdcB||

